X: 39394
T: Tap Room, The
R: reel
M: 4/4
K: Edorian
E2Be edB2|dBAF DEFD|E2Be edB2|dBAF BFAF:|
e2ef gfef|dBAF DEFD|~e3f gfef|dBAF BFAF|
edef gfef|dBAB defg|abag fgfe|dBAF BFAF||

